X:1
T: Ryan's Polka
C: R-58
M: C|
Z:
R: polka
K: D
"D"d2d2 "G"BcdB| "D"A2F2 A2F2| d2d2 "G"BcdB| "D"A2F2 "A"E4|
"D"d2d2 "G"BcdB| "D"A2F2 A3g| f2d2 "A"e2c2| "D"d6 z2:|
|:\
"D"f2d2 d2ef| "G"g2f2 e2d2| "D"f2d2 ddd2| f2g2 a4|
"D"f2d2 d2ef| "G"g2f2 e3g| "D"f2d2 "A"e2c2| "D"d6 z2:|
%
